dist/assets/img/clients/heart.svg

<svg width="49" height="47" viewBox="0 0 49 47" fill="none" xmlns="http://www.w3.org/2000/svg">
<path opacity="0.05" d="M35.559 0H35.442C33.2302 0.0107379 31.056 0.572541 29.1158 1.63462C27.1757 2.6967 25.5309 4.22557 24.33 6.083C23.1291 4.22557 21.4843 2.6967 19.5442 1.63462C17.604 0.572541 15.4298 0.0107379 13.218 0H13.1C9.61543 0.0329365 6.28468 1.43985 3.83168 3.91494C1.37868 6.39004 0.00168881 9.73328 0 13.218C0 17.546 1.895 23.687 5.591 28.74C12.633 38.367 24.33 46.789 24.33 46.789C24.33 46.789 36.03 38.367 43.069 28.74C46.769 23.687 48.66 17.546 48.66 13.218C48.6583 9.73311 47.2812 6.38972 44.828 3.9146C42.3747 1.43947 39.0437 0.0326746 35.559 0ZM40.425 26.81C35.442 33.629 27.851 39.922 24.325 42.671C20.804 39.922 13.213 33.617 8.225 26.798C4.798 22.119 3.265 16.61 3.265 13.218C3.26308 10.5977 4.29752 8.08302 6.14264 6.22254C7.98776 4.36206 10.4938 3.3068 13.114 3.287H13.219C14.9035 3.28808 16.5594 3.72305 18.027 4.55C19.4639 5.35828 20.6839 6.50214 21.583 7.884C21.8818 8.34081 22.2897 8.71599 22.7698 8.97566C23.2499 9.23533 23.7872 9.37131 24.333 9.37131C24.8788 9.37131 25.4161 9.23533 25.8962 8.97566C26.3763 8.71599 26.7842 8.34081 27.083 7.884C27.9852 6.50473 29.2045 5.36153 30.639 4.55C32.1066 3.72305 33.7625 3.28808 35.447 3.287H35.552C38.1722 3.3068 40.6782 4.36206 42.5234 6.22254C44.3685 8.08302 45.4029 10.5977 45.401 13.218C45.0869 18.1335 43.3589 22.8536 40.425 26.81Z" fill="black"/>
</svg>

<svg width="49" height="47" fill="none" xmlns="http://www.w3.org/2000/svg"><path opacity=".05" d="M35.559 0h-.117A13.31 13.31 0 0024.33 6.083 13.31 13.31 0 0013.218 0H13.1A13.225 13.225 0 000 13.218c0 4.328 1.895 10.469 5.591 15.522 7.042 9.627 18.739 18.049 18.739 18.049s11.7-8.422 18.739-18.049c3.7-5.053 5.591-11.194 5.591-15.522A13.225 13.225 0 0035.559 0zm4.866 26.81c-4.983 6.819-12.574 13.112-16.1 15.861-3.521-2.749-11.112-9.054-16.1-15.873-3.427-4.679-4.96-10.188-4.96-13.58a9.924 9.924 0 019.849-9.931h.105a9.807 9.807 0 014.808 1.263 10.22 10.22 0 013.556 3.334 3.286 3.286 0 005.5 0 10.323 10.323 0 013.556-3.334 9.807 9.807 0 014.808-1.263h.105a9.924 9.924 0 019.849 9.931 25.555 25.555 0 01-4.976 13.592z" fill="#000"/></svg>
